X: 17922
T: House Of Little Lights, The
R: waltz
M: 3/4
K: Gmajor
cBA GGE|GA B2 AG|AG A2 B2|G4 D2|
A2A Bd2|A2A B2D|A2A BdB|e2 B3G|
cBA GGE|GA B2 AG|AG d2 B2|G4 d2|
A2 B2 d2|A2A BD2|A2 B2 g2|f2 d2 G2|e2 c2 B2|
G4 dG|e2 c2 B2|G4 ef|f2 c2 B2|F4 ef|
f2 c2 B2|e2e BAG|e2 c2 B2|G4 d2|e2 c2 B2|
G4 D2|A2A B2d|A2A Bde|d4 (3ABd|c2c BAG||

